concordia/static/img/homepage-pencil.svg

<?xml version="1.0" encoding="UTF-8"?>
<svg width="200px" height="200px" viewBox="0 0 200 200" version="1.1" xmlns="http://www.w3.org/2000/svg" xmlns:xlink="http://www.w3.org/1999/xlink">
    <!-- Generator: Sketch 51.2 (57519) - http://www.bohemiancoding.com/sketch -->
    <title>Group 4</title>
    <desc>Created with Sketch.</desc>
    <defs></defs>
    <g id="Wireframes" stroke="none" stroke-width="1" fill="none" fill-rule="evenodd">
        <g id="CHC-Home" transform="translate(-148.000000, -1435.000000)" fill-rule="nonzero">
            <g id="Group-11" transform="translate(148.000000, 1435.000000)">
                <g id="Group-4">
                    <circle id="Oval-2" fill="#FC4C02" cx="100" cy="100" r="100"></circle>
                    <path d="M78.8985687,138.643368 L61.3566318,121.101431 C60.9039366,120.648736 60.9039366,119.969693 61.3566318,119.516998 L115.906397,64.9672333 C116.359092,64.5145381 117.038135,64.5145381 117.49083,64.9672333 L134.919593,82.3959964 C135.372288,82.8486915 135.372288,83.5277342 134.919593,83.9804294 L80.4830017,138.643368 C80.0303065,139.096063 79.23809,139.096063 78.8985687,138.643368 Z M51.3973386,149.960747 L74.2584434,143.396667 C75.0506599,143.17032 75.3901813,142.151756 74.7111386,141.472713 L58.4141133,125.175688 C57.8482444,124.609819 56.7165065,124.836166 56.490159,125.628383 L50.0392531,148.602661 C49.8129056,149.394878 50.6051221,150.187094 51.3973386,149.960747 Z M148.047752,61.5720197 L138.42798,51.9522478 C135.824983,49.3492507 131.637553,49.3492507 129.034556,51.9522478 L121.112391,59.8744129 C120.659696,60.327108 120.659696,61.0061507 121.112391,61.4588459 L138.541154,78.887609 C138.993849,79.3403041 139.672892,79.3403041 140.125587,78.887609 L148.047752,70.9654439 C150.650749,68.3624468 150.650749,64.1750168 148.047752,61.5720197 Z" id="Shape" fill="#FFFFFF"></path>
                </g>
            </g>
        </g>
    </g>
</svg>

<svg width="200" height="200" xmlns="http://www.w3.org/2000/svg"><g fill="none"><circle fill="#FC4C02" cx="100" cy="100" r="100"/><path d="M78.899 138.643l-17.542-17.542a1.094 1.094 0 0 1 0-1.584l54.55-54.55a1.094 1.094 0 0 1 1.584 0l17.429 17.429a1.094 1.094 0 0 1 0 1.584l-54.437 54.663c-.453.453-1.245.453-1.584 0zm-27.502 11.318l22.861-6.564c.793-.227 1.132-1.245.453-1.924l-16.297-16.297c-.566-.566-1.697-.34-1.924.452l-6.45 22.975c-.227.792.565 1.584 1.357 1.358zm96.65-88.389l-9.619-9.62a6.626 6.626 0 0 0-9.393 0l-7.923 7.922a1.094 1.094 0 0 0 0 1.585l17.43 17.429a1.094 1.094 0 0 0 1.584 0l7.922-7.923a6.626 6.626 0 0 0 0-9.393z" fill="#FFF"/></g></svg>
